groups/aromatics/pentacene.svg

<?xml version='1.0' encoding='iso-8859-1'?>
<svg version='1.1' baseProfile='full'
              xmlns='http://www.w3.org/2000/svg'
                      xmlns:rdkit='http://www.rdkit.org/xml'
                      xmlns:xlink='http://www.w3.org/1999/xlink'
                  xml:space='preserve'
width='256px' height='256px' viewBox='0 0 256 256'>
<!-- END OF HEADER -->
<rect style='opacity:1.0;fill:#FFFFFF;stroke:none' width='256.0' height='256.0' x='0.0' y='0.0'> </rect>
<path class='bond-0 atom-0 atom-1' d='M 18.7,146.5 L 39.1,134.7' style='fill:none;fill-rule:evenodd;stroke:#000000;stroke-width:2.0px;stroke-linecap:butt;stroke-linejoin:miter;stroke-opacity:1' />
<path class='bond-1 atom-1 atom-2' d='M 39.1,134.7 L 39.0,111.1' style='fill:none;fill-rule:evenodd;stroke:#000000;stroke-width:2.0px;stroke-linecap:butt;stroke-linejoin:miter;stroke-opacity:1' />
<path class='bond-1 atom-1 atom-2' d='M 42.6,132.6 L 42.5,113.2' style='fill:none;fill-rule:evenodd;stroke:#000000;stroke-width:2.0px;stroke-linecap:butt;stroke-linejoin:miter;stroke-opacity:1' />
<path class='bond-2 atom-2 atom-3' d='M 39.0,111.1 L 59.3,99.3' style='fill:none;fill-rule:evenodd;stroke:#000000;stroke-width:2.0px;stroke-linecap:butt;stroke-linejoin:miter;stroke-opacity:1' />
<path class='bond-3 atom-3 atom-4' d='M 59.3,99.3 L 79.7,111.0' style='fill:none;fill-rule:evenodd;stroke:#000000;stroke-width:2.0px;stroke-linecap:butt;stroke-linejoin:miter;stroke-opacity:1' />
<path class='bond-3 atom-3 atom-4' d='M 59.4,103.4 L 76.2,113.1' style='fill:none;fill-rule:evenodd;stroke:#000000;stroke-width:2.0px;stroke-linecap:butt;stroke-linejoin:miter;stroke-opacity:1' />
<path class='bond-4 atom-4 atom-5' d='M 79.7,111.0 L 100.1,99.2' style='fill:none;fill-rule:evenodd;stroke:#000000;stroke-width:2.0px;stroke-linecap:butt;stroke-linejoin:miter;stroke-opacity:1' />
<path class='bond-5 atom-5 atom-6' d='M 100.1,99.2 L 120.5,111.0' style='fill:none;fill-rule:evenodd;stroke:#000000;stroke-width:2.0px;stroke-linecap:butt;stroke-linejoin:miter;stroke-opacity:1' />
<path class='bond-5 atom-5 atom-6' d='M 100.1,103.3 L 117.0,113.0' style='fill:none;fill-rule:evenodd;stroke:#000000;stroke-width:2.0px;stroke-linecap:butt;stroke-linejoin:miter;stroke-opacity:1' />
<path class='bond-6 atom-6 atom-7' d='M 120.5,111.0 L 140.8,99.1' style='fill:none;fill-rule:evenodd;stroke:#000000;stroke-width:2.0px;stroke-linecap:butt;stroke-linejoin:miter;stroke-opacity:1' />
<path class='bond-7 atom-7 atom-8' d='M 140.8,99.1 L 161.2,110.9' style='fill:none;fill-rule:evenodd;stroke:#000000;stroke-width:2.0px;stroke-linecap:butt;stroke-linejoin:miter;stroke-opacity:1' />
<path class='bond-7 atom-7 atom-8' d='M 140.9,103.2 L 157.7,112.9' style='fill:none;fill-rule:evenodd;stroke:#000000;stroke-width:2.0px;stroke-linecap:butt;stroke-linejoin:miter;stroke-opacity:1' />
<path class='bond-8 atom-8 atom-9' d='M 161.2,110.9 L 181.6,99.0' style='fill:none;fill-rule:evenodd;stroke:#000000;stroke-width:2.0px;stroke-linecap:butt;stroke-linejoin:miter;stroke-opacity:1' />
<path class='bond-9 atom-9 atom-10' d='M 181.6,99.0 L 202.0,110.8' style='fill:none;fill-rule:evenodd;stroke:#000000;stroke-width:2.0px;stroke-linecap:butt;stroke-linejoin:miter;stroke-opacity:1' />
<path class='bond-9 atom-9 atom-10' d='M 181.6,103.1 L 198.5,112.8' style='fill:none;fill-rule:evenodd;stroke:#000000;stroke-width:2.0px;stroke-linecap:butt;stroke-linejoin:miter;stroke-opacity:1' />
<path class='bond-10 atom-10 atom-11' d='M 202.0,110.8 L 222.3,98.9' style='fill:none;fill-rule:evenodd;stroke:#000000;stroke-width:2.0px;stroke-linecap:butt;stroke-linejoin:miter;stroke-opacity:1' />
<path class='bond-11 atom-11 atom-12' d='M 222.3,98.9 L 242.7,110.7' style='fill:none;fill-rule:evenodd;stroke:#000000;stroke-width:2.0px;stroke-linecap:butt;stroke-linejoin:miter;stroke-opacity:1' />
<path class='bond-11 atom-11 atom-12' d='M 222.4,103.0 L 239.2,112.7' style='fill:none;fill-rule:evenodd;stroke:#000000;stroke-width:2.0px;stroke-linecap:butt;stroke-linejoin:miter;stroke-opacity:1' />
<path class='bond-12 atom-12 atom-13' d='M 242.7,110.7 L 242.8,134.2' style='fill:none;fill-rule:evenodd;stroke:#000000;stroke-width:2.0px;stroke-linecap:butt;stroke-linejoin:miter;stroke-opacity:1' />
<path class='bond-13 atom-13 atom-14' d='M 242.8,134.2 L 222.5,146.0' style='fill:none;fill-rule:evenodd;stroke:#000000;stroke-width:2.0px;stroke-linecap:butt;stroke-linejoin:miter;stroke-opacity:1' />
<path class='bond-13 atom-13 atom-14' d='M 239.3,132.2 L 222.4,141.9' style='fill:none;fill-rule:evenodd;stroke:#000000;stroke-width:2.0px;stroke-linecap:butt;stroke-linejoin:miter;stroke-opacity:1' />
<path class='bond-14 atom-14 atom-15' d='M 222.5,146.0 L 202.1,134.3' style='fill:none;fill-rule:evenodd;stroke:#000000;stroke-width:2.0px;stroke-linecap:butt;stroke-linejoin:miter;stroke-opacity:1' />
<path class='bond-15 atom-15 atom-16' d='M 202.1,134.3 L 181.7,146.1' style='fill:none;fill-rule:evenodd;stroke:#000000;stroke-width:2.0px;stroke-linecap:butt;stroke-linejoin:miter;stroke-opacity:1' />
<path class='bond-15 atom-15 atom-16' d='M 198.5,132.3 L 181.7,142.0' style='fill:none;fill-rule:evenodd;stroke:#000000;stroke-width:2.0px;stroke-linecap:butt;stroke-linejoin:miter;stroke-opacity:1' />
<path class='bond-16 atom-16 atom-17' d='M 181.7,146.1 L 161.3,134.4' style='fill:none;fill-rule:evenodd;stroke:#000000;stroke-width:2.0px;stroke-linecap:butt;stroke-linejoin:miter;stroke-opacity:1' />
<path class='bond-17 atom-17 atom-18' d='M 161.3,134.4 L 141.0,146.2' style='fill:none;fill-rule:evenodd;stroke:#000000;stroke-width:2.0px;stroke-linecap:butt;stroke-linejoin:miter;stroke-opacity:1' />
<path class='bond-17 atom-17 atom-18' d='M 157.8,132.4 L 140.9,142.1' style='fill:none;fill-rule:evenodd;stroke:#000000;stroke-width:2.0px;stroke-linecap:butt;stroke-linejoin:miter;stroke-opacity:1' />
<path class='bond-18 atom-18 atom-19' d='M 141.0,146.2 L 120.6,134.5' style='fill:none;fill-rule:evenodd;stroke:#000000;stroke-width:2.0px;stroke-linecap:butt;stroke-linejoin:miter;stroke-opacity:1' />
<path class='bond-19 atom-19 atom-20' d='M 120.6,134.5 L 100.2,146.3' style='fill:none;fill-rule:evenodd;stroke:#000000;stroke-width:2.0px;stroke-linecap:butt;stroke-linejoin:miter;stroke-opacity:1' />
<path class='bond-19 atom-19 atom-20' d='M 117.0,132.4 L 100.2,142.2' style='fill:none;fill-rule:evenodd;stroke:#000000;stroke-width:2.0px;stroke-linecap:butt;stroke-linejoin:miter;stroke-opacity:1' />
<path class='bond-20 atom-20 atom-21' d='M 100.2,146.3 L 79.8,134.6' style='fill:none;fill-rule:evenodd;stroke:#000000;stroke-width:2.0px;stroke-linecap:butt;stroke-linejoin:miter;stroke-opacity:1' />
<path class='bond-21 atom-21 atom-22' d='M 79.8,134.6 L 59.5,146.4' style='fill:none;fill-rule:evenodd;stroke:#000000;stroke-width:2.0px;stroke-linecap:butt;stroke-linejoin:miter;stroke-opacity:1' />
<path class='bond-21 atom-21 atom-22' d='M 76.3,132.5 L 59.4,142.3' style='fill:none;fill-rule:evenodd;stroke:#000000;stroke-width:2.0px;stroke-linecap:butt;stroke-linejoin:miter;stroke-opacity:1' />
<path class='bond-22 atom-22 atom-1' d='M 59.5,146.4 L 39.1,134.7' style='fill:none;fill-rule:evenodd;stroke:#000000;stroke-width:2.0px;stroke-linecap:butt;stroke-linejoin:miter;stroke-opacity:1' />
<path class='bond-23 atom-21 atom-4' d='M 79.8,134.6 L 79.7,111.0' style='fill:none;fill-rule:evenodd;stroke:#000000;stroke-width:2.0px;stroke-linecap:butt;stroke-linejoin:miter;stroke-opacity:1' />
<path class='bond-24 atom-19 atom-6' d='M 120.6,134.5 L 120.5,111.0' style='fill:none;fill-rule:evenodd;stroke:#000000;stroke-width:2.0px;stroke-linecap:butt;stroke-linejoin:miter;stroke-opacity:1' />
<path class='bond-25 atom-17 atom-8' d='M 161.3,134.4 L 161.2,110.9' style='fill:none;fill-rule:evenodd;stroke:#000000;stroke-width:2.0px;stroke-linecap:butt;stroke-linejoin:miter;stroke-opacity:1' />
<path class='bond-26 atom-15 atom-10' d='M 202.1,134.3 L 202.0,110.8' style='fill:none;fill-rule:evenodd;stroke:#000000;stroke-width:2.0px;stroke-linecap:butt;stroke-linejoin:miter;stroke-opacity:1' />
<path d='M 39.0,112.3 L 39.0,111.1 L 40.0,110.6' style='fill:none;stroke:#000000;stroke-width:2.0px;stroke-linecap:butt;stroke-linejoin:miter;stroke-miterlimit:10;stroke-opacity:1;' />
<path d='M 58.3,99.9 L 59.3,99.3 L 60.4,99.9' style='fill:none;stroke:#000000;stroke-width:2.0px;stroke-linecap:butt;stroke-linejoin:miter;stroke-miterlimit:10;stroke-opacity:1;' />
<path d='M 99.1,99.8 L 100.1,99.2 L 101.1,99.8' style='fill:none;stroke:#000000;stroke-width:2.0px;stroke-linecap:butt;stroke-linejoin:miter;stroke-miterlimit:10;stroke-opacity:1;' />
<path d='M 139.8,99.7 L 140.8,99.1 L 141.9,99.7' style='fill:none;stroke:#000000;stroke-width:2.0px;stroke-linecap:butt;stroke-linejoin:miter;stroke-miterlimit:10;stroke-opacity:1;' />
<path d='M 180.6,99.6 L 181.6,99.0 L 182.6,99.6' style='fill:none;stroke:#000000;stroke-width:2.0px;stroke-linecap:butt;stroke-linejoin:miter;stroke-miterlimit:10;stroke-opacity:1;' />
<path d='M 221.3,99.5 L 222.3,98.9 L 223.4,99.5' style='fill:none;stroke:#000000;stroke-width:2.0px;stroke-linecap:butt;stroke-linejoin:miter;stroke-miterlimit:10;stroke-opacity:1;' />
<path d='M 241.7,110.1 L 242.7,110.7 L 242.7,111.8' style='fill:none;stroke:#000000;stroke-width:2.0px;stroke-linecap:butt;stroke-linejoin:miter;stroke-miterlimit:10;stroke-opacity:1;' />
<path d='M 242.8,133.0 L 242.8,134.2 L 241.8,134.8' style='fill:none;stroke:#000000;stroke-width:2.0px;stroke-linecap:butt;stroke-linejoin:miter;stroke-miterlimit:10;stroke-opacity:1;' />
<path d='M 223.5,145.4 L 222.5,146.0 L 221.4,145.4' style='fill:none;stroke:#000000;stroke-width:2.0px;stroke-linecap:butt;stroke-linejoin:miter;stroke-miterlimit:10;stroke-opacity:1;' />
<path d='M 182.7,145.5 L 181.7,146.1 L 180.7,145.5' style='fill:none;stroke:#000000;stroke-width:2.0px;stroke-linecap:butt;stroke-linejoin:miter;stroke-miterlimit:10;stroke-opacity:1;' />
<path d='M 142.0,145.6 L 141.0,146.2 L 139.9,145.6' style='fill:none;stroke:#000000;stroke-width:2.0px;stroke-linecap:butt;stroke-linejoin:miter;stroke-miterlimit:10;stroke-opacity:1;' />
<path d='M 101.2,145.7 L 100.2,146.3 L 99.2,145.7' style='fill:none;stroke:#000000;stroke-width:2.0px;stroke-linecap:butt;stroke-linejoin:miter;stroke-miterlimit:10;stroke-opacity:1;' />
<path d='M 60.5,145.8 L 59.5,146.4 L 58.4,145.8' style='fill:none;stroke:#000000;stroke-width:2.0px;stroke-linecap:butt;stroke-linejoin:miter;stroke-miterlimit:10;stroke-opacity:1;' />
<path class='atom-1' d='M24.6115,156.657 C25.3745,156.214 24.7839,155.196 24.0209,155.639 C23.2579,156.082 22.6673,155.065 23.4303,154.622 C24.1934,154.179 23.6028,153.162 22.8398,153.605 C22.0767,154.047 21.4862,153.03 22.2492,152.587 C23.0122,152.144 22.4216,151.127 21.6586,151.57 C20.8956,152.013 20.305,150.995 21.068,150.552 C21.8311,150.109 21.2405,149.092 20.4775,149.535 C19.7144,149.978 19.1239,148.961 19.8869,148.518 C20.6499,148.075 20.0593,147.057 19.2963,147.5 C18.5333,147.943 17.9427,146.926 18.7057,146.483 C19.4688,146.04 18.8782,145.023 18.1152,145.465 C17.3521,145.908 16.7616,144.891 17.5246,144.448 C18.2876,144.005 17.697,142.988 16.934,143.431 C16.171,143.874 15.5804,142.856 16.3434,142.413 C17.1065,141.97 16.5159,140.953 15.7529,141.396 C14.9898,141.839 14.3993,140.821 15.1623,140.379 C15.9253,139.936 15.3347,138.918 14.5717,139.361 C13.8087,139.804 13.2181,138.787 13.9811,138.344 C14.7442,137.901 14.1536,136.883 13.3906,137.326 C12.6275,137.769 12.037,136.752 12.8,136.309' style='fill:none;stroke:#7F7F7F;stroke-width:2.0px;stroke-linecap:butt;stroke-linejoin:miter;stroke-opacity:1' />
</svg>

<svg height="256" viewBox="0 0 256 256" width="256" xmlns="http://www.w3.org/2000/svg"><path d="m0 0h256v256h-256z" fill="#fff"/><g fill="none" stroke-width="2"><path d="m18.7 146.5 20.4-11.8" stroke="#000"/><path d="m39.1 134.7-.1-23.6" stroke="#000"/><path d="m42.6 132.6-.1-19.4" stroke="#000"/><path d="m39 111.1 20.3-11.8" stroke="#000"/><path d="m59.3 99.3 20.4 11.7" stroke="#000"/><path d="m59.4 103.4 16.8 9.7" stroke="#000"/><path d="m79.7 111 20.4-11.8" stroke="#000"/><path d="m100.1 99.2 20.4 11.8" stroke="#000"/><path d="m100.1 103.3 16.9 9.7" stroke="#000"/><path d="m120.5 111 20.3-11.9" stroke="#000"/><path d="m140.8 99.1 20.4 11.8" stroke="#000"/><path d="m140.9 103.2 16.8 9.7" stroke="#000"/><path d="m161.2 110.9 20.4-11.9" stroke="#000"/><path d="m181.6 99 20.4 11.8" stroke="#000"/><path d="m181.6 103.1 16.9 9.7" stroke="#000"/><path d="m202 110.8 20.3-11.9" stroke="#000"/><path d="m222.3 98.9 20.4 11.8" stroke="#000"/><path d="m222.4 103 16.8 9.7" stroke="#000"/><path d="m242.7 110.7.1 23.5" stroke="#000"/><path d="m242.8 134.2-20.3 11.8" stroke="#000"/><path d="m239.3 132.2-16.9 9.7" stroke="#000"/><path d="m222.5 146-20.4-11.7" stroke="#000"/><path d="m202.1 134.3-20.4 11.8" stroke="#000"/><path d="m198.5 132.3-16.8 9.7" stroke="#000"/><path d="m181.7 146.1-20.4-11.7" stroke="#000"/><path d="m161.3 134.4-20.3 11.8" stroke="#000"/><path d="m157.8 132.4-16.9 9.7" stroke="#000"/><path d="m141 146.2-20.4-11.7" stroke="#000"/><path d="m120.6 134.5-20.4 11.8" stroke="#000"/><path d="m117 132.4-16.8 9.8" stroke="#000"/><path d="m100.2 146.3-20.4-11.7" stroke="#000"/><path d="m79.8 134.6-20.3 11.8" stroke="#000"/><path d="m76.3 132.5-16.9 9.8" stroke="#000"/><path d="m59.5 146.4-20.4-11.7" stroke="#000"/><path d="m79.8 134.6-.1-23.6" stroke="#000"/><path d="m120.6 134.5-.1-23.5" stroke="#000"/><path d="m161.3 134.4-.1-23.5" stroke="#000"/><path d="m202.1 134.3-.1-23.5" stroke="#000"/><path d="m39 112.3v-1.2l1-.5" stroke="#000" stroke-miterlimit="10"/><path d="m58.3 99.9 1-.6 1.1.6" stroke="#000" stroke-miterlimit="10"/><path d="m99.1 99.8 1-.6 1 .6" stroke="#000" stroke-miterlimit="10"/><path d="m139.8 99.7 1-.6 1.1.6" stroke="#000" stroke-miterlimit="10"/><path d="m180.6 99.6 1-.6 1 .6" stroke="#000" stroke-miterlimit="10"/><path d="m221.3 99.5 1-.6 1.1.6" stroke="#000" stroke-miterlimit="10"/><path d="m241.7 110.1 1 .6v1.1" stroke="#000" stroke-miterlimit="10"/><path d="m242.8 133v1.2l-1 .6" stroke="#000" stroke-miterlimit="10"/><path d="m223.5 145.4-1 .6-1.1-.6" stroke="#000" stroke-miterlimit="10"/><path d="m182.7 145.5-1 .6-1-.6" stroke="#000" stroke-miterlimit="10"/><path d="m142 145.6-1 .6-1.1-.6" stroke="#000" stroke-miterlimit="10"/><path d="m101.2 145.7-1 .6-1-.6" stroke="#000" stroke-miterlimit="10"/><path d="m60.5 145.8-1 .6-1.1-.6" stroke="#000" stroke-miterlimit="10"/><path d="m24.612 156.657c.763-.443.172-1.461-.591-1.018s-1.354-.574-.591-1.017.173-1.46-.59-1.017c-.763.442-1.354-.575-.591-1.018s.173-1.46-.59-1.017-1.354-.575-.591-1.018.173-1.46-.59-1.017c-.764.443-1.354-.574-.591-1.017s.172-1.461-.591-1.018-1.353-.574-.59-1.017.172-1.46-.591-1.018c-.763.443-1.353-.574-.59-1.017s.172-1.46-.591-1.017-1.354-.575-.591-1.018c.764-.443.173-1.46-.59-1.017s-1.354-.575-.591-1.017c.763-.443.173-1.461-.59-1.018s-1.354-.574-.591-1.017.173-1.461-.59-1.018-1.354-.574-.591-1.017" stroke="#7f7f7f"/></g></svg>
